X: 10569
T: Dorset, The
R: reel
M: 4/4
K: Gmajor
|:BA|G2 B2 d2 cB|c2 e2 c2 e2|G2 B2 d3 c|B2 A2 A2 BA|
G2 B2 d2 cB|c2 e2 c2 e2|G2 B2 d3 c|B2 G2 G2:|
|:d2|g2 g2 gf e2|d2 d2 dc B2|A2 AB c2 d2|e2 d2 d2 ef|
g2 g2 gf e2|d2 d2 dc B2|A2 AB c2 A2|A2 G2 G2:|

